X: 23621
T: Lilting Fisherman, The
R: reel
M: 4/4
K: Gmajor
BA|GE~E2 cdef|gedB cA Az|GE~E2 cdef|gedB c2:|
cd|ef~g2 eaaf|gedB cAA2|ef~g2 eaab|c'bag a2gf|
ef~g2 eaaf|gedB cAA2|GE~E2 cdef|gedB c2cd||
ef~g2 eaaf|gedB cAA2|ef~g2 eaab|c'bag a2ab|
(3c'ba bg agef|gedB cAA2|GE~E2 cdef|gedB c2||

